X:315
T:Untitled RH.315
R:reel
S:Rev.R.Harrison's MS,c1815,Cumbria
O:England
A:Temple Sowerby,Cumbria
Z:vmp.Simon Wilson. Review PJH, 2008.
M:C|
L:1/8
Q:1/2=70
K:G
GAGe dGeG|FDDG F/G/A/F/ DF|\
GAGe dGBd|ec' c'/b/a/g/ a2g2:|!
|:gdbd c'dbd|gb c'/b/a/g/ faab|\
gdbd c'dbd|ec' b/a/g/f/a2g2|!
gdbd c'dbd|gb c'/b/a/g/ faag/f/|\
eceg dBdg|ec' b/a/g/f/a2g2:|

